X: 1
T: McGreavy's
M: 6/8
L: 1/8
R: jig
K: Edor
B2e dBA | BAG EDB, | DEG Eed | BAG ABd | e/f/ge dBA | BAG EDB, |DEG Eed | BAG E3 :|
e2f gfe | beg fed | Beg  =ceg | f2f/f/ e3| g2f edB | AFD FGA | d2d/d/ fed | BAF E3:|
